src/lib/packages/icons/src/assets/filled/volleyball.svg

<svg width="24" height="24" viewBox="0 0 24 24" fill="none" xmlns="http://www.w3.org/2000/svg">
<path d="M20 9.25002C17.22 9.25002 14.48 9.91001 12.03 11.15C11.01 10.57 10.06 9.90002 9.19 9.13002C11.9 6.71002 15.43 5.52002 19.15 5.80002C19.15 5.80002 19.47 5.83001 19.95 5.95001C20.71 6.95001 21.29 8.09002 21.63 9.33002C21.11 9.28002 20.58 9.25002 20 9.25002ZM21.7 10.84C21.18 10.78 20.62 10.75 20 10.75C19.23 10.75 18.46 10.81 17.71 10.92C17.74 11.3 17.75 11.66 17.75 12C17.75 15.66 16.41 19.1 14 21.8C18.57 20.87 22 16.84 22 12C22 11.62 21.97 11.25 21.93 10.88C21.79 10.86 21.7 10.84 21.7 10.84ZM11.92 17.37C11.92 17.37 11.92 17.4 11.92 17.42C11.92 17.44 11.9 17.45 11.89 17.47C11.4 18.98 10.71 20.42 9.82001 21.76C10.43 21.9 11.06 21.97 11.71 21.99C12.06 21.67 12.28 21.45 12.29 21.44C14.85 18.92 16.25 15.58 16.25 12C16.25 11.74 16.25 11.48 16.22 11.2C15.01 11.49 13.84 11.92 12.73 12.48C12.69 14.16 12.42 15.8 11.92 17.38V17.37ZM3.39001 8.09001C4.56001 11.69 7.26999 14.62 10.71 16.13C11.02 14.93 11.2 13.69 11.23 12.42C8.36001 10.79 6.01 8.41002 4.41 5.49002C3.92 6.06002 3.49001 6.68002 3.14001 7.35002C3.23001 7.64002 3.31 7.90002 3.38 8.08002L3.39001 8.09001ZM8.45001 21.12C9.21001 20.02 9.80001 18.82 10.26 17.57C6.66001 16.04 3.77999 13.1 2.32999 9.49002C2.11999 10.29 2 11.13 2 12C2 16.22 4.62 19.82 8.31 21.29C8.4 21.19 8.45999 21.12 8.45999 21.12H8.45001ZM5.62 4.59001C6.29999 5.87001 7.13999 7.03002 8.10999 8.08002C10.83 5.62002 14.3 4.26001 17.99 4.26001C18.1 4.26001 18.21 4.27002 18.32 4.27002C16.6 2.86002 14.39 2.01001 11.99 2.01001C9.58999 2.01001 7.26999 2.91001 5.51999 4.39001C5.54999 4.46001 5.57999 4.53001 5.60999 4.59001H5.62Z" fill="currentColor"/>
</svg>

<svg xmlns="http://www.w3.org/2000/svg" width="24" height="24" fill="none"><path fill="currentColor" d="M20 9.25c-2.78 0-5.52.66-7.97 1.9-1.02-.58-1.97-1.25-2.84-2.02 2.71-2.42 6.24-3.61 9.96-3.33 0 0 .32.03.8.15.76 1 1.34 2.14 1.68 3.38-.52-.05-1.05-.08-1.63-.08Zm1.7 1.59a15.83 15.83 0 0 0-3.99.08A14.635 14.635 0 0 1 14 21.8c4.57-.93 8-4.96 8-9.8 0-.38-.03-.75-.07-1.12-.14-.02-.23-.04-.23-.04Zm-9.78 6.53v.05c0 .02-.02.03-.03.05-.49 1.51-1.18 2.95-2.07 4.29.61.14 1.24.21 1.89.23.35-.32.57-.54.58-.55 2.56-2.52 3.96-5.86 3.96-9.44 0-.26 0-.52-.03-.8-1.21.29-2.38.72-3.49 1.28-.04 1.68-.31 3.32-.81 4.9v-.01ZM3.39 8.09c1.17 3.6 3.88 6.53 7.32 8.04.31-1.2.49-2.44.52-3.71a17.75 17.75 0 0 1-6.82-6.93c-.49.57-.92 1.19-1.27 1.86.09.29.17.55.24.73l.01.01Zm5.06 13.03c.76-1.1 1.35-2.3 1.81-3.55-3.6-1.53-6.48-4.47-7.93-8.08-.21.8-.33 1.64-.33 2.51 0 4.22 2.62 7.82 6.31 9.29.09-.1.15-.17.15-.17h-.01ZM5.62 4.59c.68 1.28 1.52 2.44 2.49 3.49 2.72-2.46 6.19-3.82 9.88-3.82.11 0 .22.01.33.01a9.963 9.963 0 0 0-6.33-2.26c-2.4 0-4.72.9-6.47 2.38.03.07.06.14.09.2h.01Z"/></svg>
